X: 20
T: Clarissa
%R: reel
B: "Twenty Four Country Dances with Figures for the Year 1813", Button & Whitaker, p.10 #2
F: http://www.vwml.org/browse/browse-collections-dance-tune-books/browse-button1813
Z: 2015 John Chambers <jc:trillian.mit.edu>
N: The Figures by Mr WILSON.
M: 2/4
L: 1/16
K: D
% - - - - - - - - - - - - - - - - - - - - - - - - - - - - -
AG |\
Fd~d2 Af~f2 | egBe dcBA |\
Fd~d2 Af~f2 | edef d2 :|\
|:\
AGF2 AGF2 | {e}d2cB B2A2 |
gA~A2 fA~A2 | cdef ecA2 |\
A2GF A2GF | {e}d2cB B2A2 |\
ge~e2 {g}f2ed | Bgec d4 :|
% - - - - - - - - - - Dance description - - - - - - - - - -
%%text SINGLE FIGURE (Each strain repeated)
%%begintext align
%% 1st Lady turns the 2d Gent: 1st Gent: turns the 2d Lady |: cross
%% over one Cu: and half figure round the bottom Cu: and turn |: .
%%endtext
%%text DOUBLE FIGURE (Tune play'd twice thro' with repeats)
%%begintext align
%% Set and change places (with the 2d Cu:) and back again |: whole poussette |:
%% the double triangle |: and hands 6 round and back again |: .
%%endtext

%%sep 2 1 500
%%sep 1 1 500

